X: 7
T: No_16_Social_Dance_Song_(d).krn
N: Derived from No_16_Social_Dance_Song_(d).krn
%%abc-version 2.0
%%abcx-abcm2ps-target-version 5.9.1 (29 Sep 2008)
%%abc-creator hum2abc beta
%%abcx-conversion-date 2019/03/15 08:35:00
%%humdrum-veritas 123713902
%%humdrum-veritas-data 2316090104
%%linebreak <none>
%%barnumbers 0
L: 1/16
M: 2/4
K: E clef=bass
[K:clef=bass][M:2/4]B,,2E,E,E,4 | 
F,2E,E, E,C,E, z | 
F,2E,E, E,C,B,, z | 
B,,2E,E, E,2 z2 ]|:  
F,F,F,F,F,4 | 
F,2F,E, E,C,E, z | 
F,2E,E, E,C,B,, z | 
B,,2E,E,E,4 | 
F,F,E,E, E,C,E, z | 
F,2E,E, E,C,B,, z | 
B,,2E,E, E,2 z2 :|]  



